X: 1821
T: Ardaneen, The
R: polka
M: 2/4
K: Dmajor
|:AA/B/ AF|AB d>B|AF EF|AF EF|
AA/B/ AF|AB d>e|fa ef|1 ed dB:|2 ed d2||
[K:Dm]|:aa/a/ ag|fe cA|de fA|gA fA|
aa/a/ ag|1 fe cA|df gc|d2 d2:|2 fe cb|ba gc|d2 d2||

